public/assets/imgs/toilett-icon.svg

<svg fill="none" height="206" viewBox="0 0 124 206" width="124" xmlns="http://www.w3.org/2000/svg"><path clip-rule="evenodd" d="m11 8h102c1.657 0 3 1.34314 3 3 0 1.6569-1.343 3-3 3h-102c-1.65685 0-3-1.3431-3-3 0-1.65685 1.34315-3 3-3zm-11 3c0-6.07513 4.92487-11 11-11h102c6.075 0 11 4.92487 11 11 0 4.664-2.903 8.65-7 10.2501v57.7499c0 6.0751-4.925 11-11 11h-3v6h4.5c.173 0 .346.0112.517.0336 2.692.351 6.208 1.788 9.084 3.9639 2.85 2.1565 5.899 5.6955 5.899 10.5025 0 1.932-.847 3.554-1.488 4.511-.205.308-.427.602-.657.876-.975 10.012-4.796 24.124-13.41 36.077-5.057 7.017-11.7677 13.276-20.445 17.493v32.543c0 2.209-1.7909 4-4 4h-42c-2.2091 0-4-1.791-4-4v-32.109c-12.1959-5.673-20.3675-15.337-25.6088-25.406-5.03793-9.679-7.46729-19.904-8.20615-27.827-.49588-.398-.92341-.863-1.27448-1.364-1.012452-1.447-1.41057-3.176-1.41057-4.794 0-4.135 2.56562-7.768 5.32089-10.15 2.8144-2.4345 6.70751-4.35 10.67911-4.35h4.5v-6h-3c-6.0751 0-11-4.9249-11-11v-57.7499c-4.09736-1.6001-7-5.5861-7-10.2501zm29 79h66v5h-66zm77-8h-3-82-3c-1.6569 0-3-1.3431-3-3v-56h94v56c0 1.6569-1.343 3-3 3zm-87.5126 58.791c-4.074-7.827-6.243-16.1-7.105-22.791h101.1556c-1.272 8.626-4.75 19.806-11.583 29.286-7.9107 10.977-20.3091 19.714-39.455 19.714-7.3612 0-13.6443-1.29-19.0081-3.446-11.3766-4.573-19.0426-13.231-24.0045-22.763zm93.7866-34.414c1.678 1.27 2.492 2.533 2.682 3.623h-106.39483c.20428-.912.93948-2.256 2.49293-3.6 1.8106-1.565 3.9175-2.4 5.4459-2.4h90.698c1.191.214 3.275 1.015 5.076 2.377zm-67.274 91.623v-25.161c4.9895 1.395 10.4789 2.161 16.5 2.161 6.4474 0 12.265-.877 17.5-2.438v25.438zm-17-160c1.6569 0 3-1.3431 3-3s-1.3431-3-3-3-3 1.3431-3 3 1.3431 3 3 3zm10.2501 1c-1.6001 4.0974-5.5861 7-10.2501 7-6.0751 0-11-4.9249-11-11s4.9249-11 11-11c4.664 0 8.65 2.9026 10.2501 7h10.7499c2.2091 0 4 1.7909 4 4s-1.7909 4-4 4z" fill="#000" fill-rule="evenodd"/></svg>

<svg width="124" height="206" viewBox="0 0 124 206" fill="none" xmlns="http://www.w3.org/2000/svg">
<path fill-rule="evenodd" clip-rule="evenodd" d="M11 8H113C114.657 8 116 9.34314 116 11C116 12.6569 114.657 14 113 14H11C9.34315 14 8 12.6569 8 11C8 9.34315 9.34315 8 11 8ZM0 11C0 4.92487 4.92487 0 11 0H113C119.075 0 124 4.92487 124 11C124 15.664 121.097 19.65 117 21.2501V79C117 85.0751 112.075 90 106 90H103V96H107.5C107.673 96 107.846 96.0112 108.017 96.0336C110.709 96.3846 114.225 97.8216 117.101 99.9975C119.951 102.154 123 105.693 123 110.5C123 112.432 122.153 114.054 121.512 115.011C121.307 115.319 121.085 115.613 120.855 115.887C119.88 125.899 116.059 140.011 107.445 151.964C102.388 158.981 95.6773 165.24 87 169.457V202C87 204.209 85.2091 206 83 206H41C38.7909 206 37 204.209 37 202V169.891C24.8041 164.218 16.6325 154.554 11.3912 144.485C6.35327 134.806 3.92391 124.581 3.18505 116.658C2.68917 116.26 2.26164 115.795 1.91057 115.294C0.898118 113.847 0.5 112.118 0.5 110.5C0.5 106.365 3.06562 102.732 5.82089 100.35C8.63529 97.9155 12.5284 96 16.5 96H21V90H18C11.9249 90 7 85.0751 7 79V21.2501C2.90264 19.65 0 15.664 0 11ZM29 90H95V95H29V90ZM106 82H103H21H18C16.3431 82 15 80.6569 15 79V23H109V79C109 80.6569 107.657 82 106 82ZM18.4874 140.791C14.4134 132.964 12.2444 124.691 11.3824 118H112.538C111.266 126.626 107.788 137.806 100.955 147.286C93.0443 158.263 80.6459 167 61.5 167C54.1388 167 47.8557 165.71 42.4919 163.554C31.1153 158.981 23.4493 150.323 18.4874 140.791ZM112.274 106.377C113.952 107.647 114.766 108.91 114.956 110H8.56117C8.76545 109.088 9.50065 107.744 11.0541 106.4C12.8647 104.835 14.9716 104 16.5 104H107.198C108.389 104.214 110.473 105.015 112.274 106.377ZM45 198V172.839C49.9895 174.234 55.4789 175 61.5 175C67.9474 175 73.765 174.123 79 172.562V198H45ZM28 38C29.6569 38 31 36.6569 31 35C31 33.3431 29.6569 32 28 32C26.3431 32 25 33.3431 25 35C25 36.6569 26.3431 38 28 38ZM38.2501 39C36.65 43.0974 32.664 46 28 46C21.9249 46 17 41.0751 17 35C17 28.9249 21.9249 24 28 24C32.664 24 36.65 26.9026 38.2501 31H49C51.2091 31 53 32.7909 53 35C53 37.2091 51.2091 39 49 39H38.2501Z" fill="black"/>
</svg>
